X:176
T: Die verlass'ne Grtnerin (3-14), S. 38
N: K1151
O: Luxemburg
S: KINTZELE, Guillaume: An der Ucht, Bd. 3 Luxemburg 1928]
R: Brautsuche]
M: 4/4
L: 1/16
K: G
D2 | G4B2G2D6D2 | E4E2E2E2F2G2E2 | E4D8z2
D2 | D2c2c2d2B4B4 | A4A2F2G4z2
B2 | G3AB2c2d6B2 | G4B4d4c4 | B4A8z2
D2 | D2c2c2d2B4B4 | A4A2F2G4z2
D2 | G4AB2cd6B2 | G4B4d4c4 | B4A8z2
D2 | D2c2c2d2B4B4 | A4A2F2G4z2

@@@ Tune index: 8230
